X:1
T:Margarita voi fior
T:Enrico Radesca di Foggia
T:Source : Libro secondo delle canzonette, madrigali et arie  alla Romana a due voci--- Milano---Herede di S.Tini et F.Lomazzo---1606 Editor : André Vierendeels (14/11/16)
T:Notes : Original clefs : C1, F4 "Per cantar e suonar con il chitarone o spinetta."
T:Margarita voi fior
T:©
T:©
C:Enrico Radesca di Foggia
Z:©
%%score 1 2
L:1/8
Q:1/4=120
M:4/4
K:F
V:1 treble nm="Soprano" snm="S"
V:2 bass nm="MusicXML Part"
V:1
 z2 GG B4 | G4 z2 d2 | B2 A2 B2 G2 | A4 A4 | z2 AA A2 AB | c4 z2 d2 | _e2 d2 c4 | B4 z2 d2 | %8
w: Mar- ga- ri-|ta voi|fior, e per- la|se- te,|per- la d'al- to va-|lor, fior|di bel- lez-|za, e|
 c2 c2 c2 B2 | A4 A4 | z2 ^F2 FFFF | ^F3 F F2 G2 | A4 A2 d2 | d2 G3 G A2 | A4 G4 :: z2 G2 G2 D2 | %16
w: qual per- la splen-|de- te,|di lum' O- ri- en-|tal', e co- me|fio- re Spi-|rat' A- rab' o-|do- re.|o- dor ch'o-|
 D3 C E4 | E2 G3 G G2 | G3 F A4 | A2 c2 c3 c | c3 B d2 d2 | z2 dd d2 cB | A2 DE FGAB | c2 CD EFGA | %24
w: gn'un' ap- prez-|za, lu- me ch'o-|gn'al- ma mi-|ra, o- dor, e|lu- me ta- le,|che vi mo- stran ce-|lest' et _ _ _ _ _|_ im- * * * * *|
 BcdB cABG | A8 | G8 :| %27
w: * * * * * * * mor-|ta-|le.|
V:2
"^Bass""^BC" z2 G,G, G,4 | G,,4 z2 G,2 | G,2 F,2 _E,2 E,2 | D,4 D,4 | z2 D,D, D,2 D,G, | %5
w: Mar- ga- ri-|ta voi|fior, e per- la|se- te,|per- la d'al- to va-|
"^B" F,4 z2 B,2 | _E,2 E,2 F,4 | B,,4 z2 B,,2 | F,2 F,2 F,2 G,2 | D,4 D,4 |"^B" z2 D,2 D,D,D,D, | %11
w: lor, fior|di bel- lez-|za, e|qual per- la splen-|de- te,|di lum' O- ri- en-|
 D,3 D, D,2 G,2 | F,4 F,2 B,,2 | B,,2 C,3 C, C,2 | D,4 G,,4 ::"^B" z2 G,2 G,2 G,2 | G,,2 G,,2 C,4 | %17
w: tal, e co- me|fio- re Spi-|rat' A- rab' o-|do- re,|o- dor ch'o-|gn'un' ap- prez-|
 C,2 C,3 C, C,2 | C,2 C,2 F,,4 |"^B" F,,2 F,2 F,3 F, | F,2 F,2 B,,2 B,,2 | z2 B,,B,, B,,2 C,C, | %22
w: za, lu- me ch'o-|gn'al- ma mi-|ra, o- dor, e|lu- me ta- le,|che vi mo- stran ce-|
 D,4 D,4 |"^B" C,4 C,4 | B,,4 A,,2 G,,2 | D,8 | G,,8 :| %27
w: lest' et|im- mor-|ta- * *||le.|

